X:1035
T:Gossabrough Waltz
C:Joe Buchanan's Scottish Tome - Page 621.2
I:621 2
Z:Carl Allison
U:T=!tenuto!
R:Waltz
L:1/4
M:3/4
K:D
A | d2- d | (f2 d) | (B2 d) | (A F A) | d2- d | f e d | d3 | e2 A | 
(d2 d) | (f2 d) | (B2 d) | (A F A) | TB Tc Td | Tc Td Te | d3 | d2 :|
(f/g/) | a>b a | e>d B | (A F A) | d2- d | f e d | e3 | e f g |
a>b a | f>e d | e d B | (A F A) | TB Tc Td | Tc Td Te | d3 | d2 f/g/ |
a>b a | e>d B | (A F A) | d2- d | f e d | d3 | e2 A |
(d2 d) | (f2 d) | (B2 d) | (A F A) | TB Tc Td | Tc Td Te | d3 | d2 |]

